lib/healthicons/icons/solid/medications/blister_pills_round_x4.svg

<svg fill="none" height="48" viewBox="0 0 48 48" width="48" xmlns="http://www.w3.org/2000/svg"><path clip-rule="evenodd" d="m16 4c-2.2091 0-4 1.79086-4 4v15c.5523 0 1 .4477 1 1s-.4477 1-1 1v15c0 2.2091 1.7909 4 4 4h16c2.2091 0 4-1.7909 4-4v-15c-.5523 0-1-.4477-1-1s.4477-1 1-1v-15c0-2.20914-1.7909-4-4-4zm0 20c0 .5523-.4477 1-1 1s-1-.4477-1-1 .4477-1 1-1 1 .4477 1 1zm2 1c.5523 0 1-.4477 1-1s-.4477-1-1-1-1 .4477-1 1 .4477 1 1 1zm4-1c0 .5523-.4477 1-1 1s-1-.4477-1-1 .4477-1 1-1 1 .4477 1 1zm2 1c.5523 0 1-.4477 1-1s-.4477-1-1-1-1 .4477-1 1 .4477 1 1 1zm4-1c0 .5523-.4477 1-1 1s-1-.4477-1-1 .4477-1 1-1 1 .4477 1 1zm2 1c.5523 0 1-.4477 1-1s-.4477-1-1-1-1 .4477-1 1 .4477 1 1 1zm4-1c0 .5523-.4477 1-1 1s-1-.4477-1-1 .4477-1 1-1 1 .4477 1 1zm-12-10c0 1.6569-1.3431 3-3 3s-3-1.3431-3-3 1.3431-3 3-3 3 1.3431 3 3zm7 3c1.6569 0 3-1.3431 3-3s-1.3431-3-3-3-3 1.3431-3 3 1.3431 3 3 3zm-7 17c0 1.6569-1.3431 3-3 3s-3-1.3431-3-3 1.3431-3 3-3 3 1.3431 3 3zm7 3c1.6569 0 3-1.3431 3-3s-1.3431-3-3-3-3 1.3431-3 3 1.3431 3 3 3z" fill="#333" fill-rule="evenodd"/></svg>

<svg width="48" height="48" viewBox="0 0 48 48" fill="none" xmlns="http://www.w3.org/2000/svg">
<path fill-rule="evenodd" clip-rule="evenodd" d="M16 4C13.7909 4 12 5.79086 12 8V23C12.5523 23 13 23.4477 13 24C13 24.5523 12.5523 25 12 25V40C12 42.2091 13.7909 44 16 44H32C34.2091 44 36 42.2091 36 40V25C35.4477 25 35 24.5523 35 24C35 23.4477 35.4477 23 36 23V8C36 5.79086 34.2091 4 32 4H16ZM16 24C16 24.5523 15.5523 25 15 25C14.4477 25 14 24.5523 14 24C14 23.4477 14.4477 23 15 23C15.5523 23 16 23.4477 16 24ZM18 25C18.5523 25 19 24.5523 19 24C19 23.4477 18.5523 23 18 23C17.4477 23 17 23.4477 17 24C17 24.5523 17.4477 25 18 25ZM22 24C22 24.5523 21.5523 25 21 25C20.4477 25 20 24.5523 20 24C20 23.4477 20.4477 23 21 23C21.5523 23 22 23.4477 22 24ZM24 25C24.5523 25 25 24.5523 25 24C25 23.4477 24.5523 23 24 23C23.4477 23 23 23.4477 23 24C23 24.5523 23.4477 25 24 25ZM28 24C28 24.5523 27.5523 25 27 25C26.4477 25 26 24.5523 26 24C26 23.4477 26.4477 23 27 23C27.5523 23 28 23.4477 28 24ZM30 25C30.5523 25 31 24.5523 31 24C31 23.4477 30.5523 23 30 23C29.4477 23 29 23.4477 29 24C29 24.5523 29.4477 25 30 25ZM34 24C34 24.5523 33.5523 25 33 25C32.4477 25 32 24.5523 32 24C32 23.4477 32.4477 23 33 23C33.5523 23 34 23.4477 34 24ZM22 14C22 15.6569 20.6569 17 19 17C17.3431 17 16 15.6569 16 14C16 12.3431 17.3431 11 19 11C20.6569 11 22 12.3431 22 14ZM29 17C30.6569 17 32 15.6569 32 14C32 12.3431 30.6569 11 29 11C27.3431 11 26 12.3431 26 14C26 15.6569 27.3431 17 29 17ZM22 34C22 35.6569 20.6569 37 19 37C17.3431 37 16 35.6569 16 34C16 32.3431 17.3431 31 19 31C20.6569 31 22 32.3431 22 34ZM29 37C30.6569 37 32 35.6569 32 34C32 32.3431 30.6569 31 29 31C27.3431 31 26 32.3431 26 34C26 35.6569 27.3431 37 29 37Z" fill="#333333"/>
</svg>
